brandFactory_export/1.Light/Documento_Archivo JPEG_1Light.svg

<?xml version="1.0" encoding="UTF-8"?>
<svg width="24px" height="24px" viewBox="0 0 24 24" version="1.1" xmlns="http://www.w3.org/2000/svg" xmlns:xlink="http://www.w3.org/1999/xlink">
    <title>1.Light/Documento_Archivo JPEG_1Light</title>
    <g id="Symbols" stroke="none" stroke-width="1" fill="none" fill-rule="evenodd">
        <g id="1.Light/Documento_Archivo-JPEG_1Light" fill="#5CB615" fill-rule="nonzero">
            <path d="M16.3092437,0.00336134454 C16.5243697,0.00336134454 16.7294118,0.087394958 16.887395,0.235294118 L23.3781513,6.5210084 C23.4857143,6.62184874 23.5462185,6.75966387 23.5831933,6.90420168 C23.610084,6.96470588 23.6235294,7.02857143 23.6235294,7.09915966 L23.6235294,22.1747899 C23.6235294,22.9579832 22.9478992,23.6201681 22.1478992,23.6201681 L7.22352941,23.6201681 C6.43697479,23.6201681 5.74453782,22.9445378 5.74453782,22.1747899 L5.78823529,18.5310924 L2.71932773,18.5310924 C1.22016807,18.5310924 2.19122498e-10,17.3109244 2.19122498e-10,15.8084034 L2.19122498e-10,10.7932773 C2.19122498e-10,9.2907563 1.22016807,8.07058824 2.71932773,8.07058824 L5.74453782,8.07058824 L5.74453782,1.4487395 C5.74453782,0.692436975 6.44705882,0.00336134454 7.22352941,0.00336134454 L16.3092437,0.00336134454 Z M15.4789916,0.994957983 L7.22016807,0.994957983 C6.99831933,0.994957983 6.73277311,1.24033613 6.73277311,1.4487395 L6.73277311,8.07058824 L14.7798319,8.07058824 C16.2789916,8.07058824 17.4991597,9.2907563 17.4991597,10.7932773 L17.4991597,15.8084034 C17.4991597,17.3109244 16.2789916,18.5310924 14.7798319,18.5310924 L6.77983193,18.5310924 L6.73613445,22.1815126 C6.73613445,22.4 6.98151261,22.6285714 7.22352941,22.6285714 L22.1478992,22.6285714 L22.1478992,22.6319328 C22.3966387,22.6319328 22.6319328,22.410084 22.6319328,22.1781513 L22.6319328,7.92268908 L19.5529412,7.92268908 C18.3764706,7.92268908 17.3613445,7.54285714 16.6218487,6.82352941 C15.8756303,6.10084034 15.4789916,5.1092437 15.4789916,3.96302521 L15.4789916,0.994957983 Z M14.7831933,9.06218487 L2.71932773,9.06218487 C1.76806723,9.06218487 0.991596639,9.83865546 0.991596639,10.7932773 L0.991596639,15.8084034 C0.991596639,16.7630252 1.76470588,17.5394958 2.71932773,17.5394958 L14.7831933,17.5394958 C15.7344538,17.5394958 16.5109244,16.7630252 16.5109244,15.8084034 L16.5109244,10.7932773 C16.5109244,9.83865546 15.7378151,9.06218487 14.7831933,9.06218487 Z M4.28907563,11.3647059 L4.28907563,14.1411765 C4.28907563,14.6252101 4.20840336,14.887395 4.01008403,15.0857143 C3.83193277,15.2571429 3.54957983,15.3378151 3.1092437,15.3378151 C2.91764706,15.3378151 2.78991597,15.3243697 2.51092437,15.287395 L2.44705882,14.6084034 C2.62521008,14.6420168 2.82352941,14.6554622 2.90756303,14.6554622 C3.28403361,14.6554622 3.40168067,14.5546218 3.40168067,14.1210084 L3.40168067,11.3647059 L4.28907563,11.3647059 Z M13.7647059,11.2907563 C14.1512605,11.2907563 14.6117647,11.3714286 14.8638655,11.4789916 L14.7495798,12.1277311 C14.4705882,12.0470588 14.1344538,11.9865546 13.8285714,11.9865546 C13.0420168,11.9865546 12.7193277,12.4537815 12.7193277,13.3008403 C12.7193277,13.7378151 12.7764706,14.097479 12.9478992,14.3361345 C13.0890756,14.5344538 13.3243697,14.6487395 13.7008403,14.6487395 C13.8420168,14.6487395 14.0369748,14.6319328 14.1747899,14.6084034 L14.1747899,13.7882353 L13.6268908,13.7882353 L13.6268908,13.1495798 L15.0554622,13.1495798 L15.0554622,15.1361345 C14.6857143,15.2504202 14.0941176,15.3344647 13.6672269,15.3344647 C12.2689076,15.3378151 11.794958,14.5680672 11.794958,13.3344538 C11.794958,12.1176471 12.4369748,11.2907563 13.7647059,11.2907563 Z M6.45378151,11.3647059 C7.06218487,11.3647059 7.4487395,11.4487395 7.70084034,11.6840336 C7.91260504,11.8789916 8.01344538,12.1781513 8.01344538,12.594958 C8.01344538,13.0117647 7.91596639,13.3243697 7.72436975,13.5394958 C7.49579832,13.794958 7.14285714,13.9159664 6.63193277,13.9159664 L6.00672269,13.9159664 L6.00672269,15.2605042 L5.11932773,15.2605042 L5.11932773,11.3647059 L6.45378151,11.3647059 Z M11.2672269,11.3647059 L11.2,12.0067227 L9.52605042,12.0067227 L9.52605042,12.9512605 L10.8638655,12.9512605 L10.8638655,13.6168067 L9.52605042,13.6168067 L9.52605042,14.6117647 L11.297479,14.6117647 L11.297479,15.2537815 L8.63865546,15.2537815 L8.63865546,11.3647059 L11.2672269,11.3647059 Z M6.41680672,12.0067227 L6,12.0067227 L6,13.2470588 L6.44033613,13.2470588 C6.72605042,13.2470588 6.84369748,13.2067227 6.95798319,13.0991597 C7.05882353,12.9983193 7.11260504,12.8302521 7.11260504,12.605042 C7.11260504,12.3932773 7.06554622,12.2420168 6.96470588,12.1445378 C6.85714286,12.0470588 6.69243698,12.0067227 6.41680672,12.0067227 Z M16.4705882,1.21008403 L16.4705882,3.95966387 C16.4705882,4.83361345 16.7596639,5.57647059 17.3109244,6.10756303 C17.8655462,6.64201681 18.6420168,6.92773109 19.5529412,6.92773109 L22.3731092,6.92773109 L16.4705882,1.21008403 Z" id="Documento_Archivo-JPEG_1Light"></path>
        </g>
    </g>
</svg>

<svg width="24" height="24" viewBox="0 0 24 24" xmlns="http://www.w3.org/2000/svg"><path d="M16.31.003c.214 0 .42.084.577.232l6.491 6.286c.108.1.168.239.205.383a.47.47 0 01.04.195v15.076c0 .783-.675 1.445-1.475 1.445H7.224c-.787 0-1.48-.675-1.48-1.445l.044-3.644H2.72C1.22 18.531 0 17.311 0 15.808v-5.015a2.723 2.723 0 012.72-2.722h3.025V1.449c0-.757.702-1.446 1.479-1.446h9.085zm-.831.992H7.22c-.222 0-.487.245-.487.454V8.07h8.047c1.499 0 2.72 1.22 2.72 2.722v5.015a2.723 2.723 0 01-2.72 2.723h-8l-.044 3.65c0 .219.246.448.488.448h14.924v.003c.249 0 .484-.222.484-.454V7.923h-3.08c-1.176 0-2.19-.38-2.93-1.1-.746-.722-1.143-1.714-1.143-2.86V.995zm-.696 8.067H2.72c-.95 0-1.727.777-1.727 1.731v5.015a1.73 1.73 0 001.727 1.731h12.064c.951 0 1.728-.776 1.728-1.73v-5.016a1.73 1.73 0 00-1.728-1.73zM4.29 11.365v2.776c0 .484-.08.746-.279.945-.178.171-.46.252-.9.252-.192 0-.32-.014-.6-.05l-.063-.68c.178.034.377.047.46.047.377 0 .495-.1.495-.534v-2.756h.887zm9.476-.074c.386 0 .847.08 1.099.188l-.114.649a3.468 3.468 0 00-.921-.141c-.787 0-1.11.467-1.11 1.314 0 .437.057.796.229 1.035.141.198.376.313.753.313.141 0 .336-.017.474-.04v-.82h-.548v-.64h1.428v1.987c-.37.114-.96.198-1.388.198-1.398.004-1.872-.766-1.872-2 0-1.216.642-2.043 1.97-2.043zm-7.311.074c.608 0 .995.084 1.247.319.212.195.312.494.312.911 0 .417-.097.73-.289.944-.228.256-.581.377-1.092.377h-.625v1.345h-.888v-3.896h1.335zm4.813 0l-.067.642H9.526v.944h1.338v.666H9.526v.995h1.771v.642H8.64v-3.89h2.628zm-4.85.642H6v1.24h.44c.286 0 .404-.04.518-.148.1-.1.155-.269.155-.494 0-.212-.047-.363-.148-.46-.108-.098-.273-.138-.548-.138zM16.47 1.21v2.75c0 .874.289 1.616.84 2.148.555.534 1.331.82 2.242.82h2.82L16.471 1.21z" fill="#5CB615" fill-rule="nonzero"/></svg>
